Numix/16/categories/preferences-desktop-accessibility.svg

<?xml version="1.0" encoding="UTF-8" standalone="no"?>
<!-- Created with Inkscape (http://www.inkscape.org/) -->

<svg
   xmlns:dc="http://purl.org/dc/elements/1.1/"
   xmlns:cc="http://creativecommons.org/ns#"
   xmlns:rdf="http://www.w3.org/1999/02/22-rdf-syntax-ns#"
   xmlns:svg="http://www.w3.org/2000/svg"
   xmlns="http://www.w3.org/2000/svg"
   xmlns:sodipodi="http://sodipodi.sourceforge.net/DTD/sodipodi-0.dtd"
   xmlns:inkscape="http://www.inkscape.org/namespaces/inkscape"
   version="1.0"
   width="16"
   height="16"
   id="svg3366"
   inkscape:version="0.91 r"
   sodipodi:docname="preferences-desktop-accessibility.svg">
  <metadata
     id="metadata30">
    <rdf:RDF>
      <cc:Work
         rdf:about="">
        <dc:format>image/svg+xml</dc:format>
        <dc:type
           rdf:resource="http://purl.org/dc/dcmitype/StillImage" />
        <dc:title />
      </cc:Work>
    </rdf:RDF>
  </metadata>
  <sodipodi:namedview
     pagecolor="#ffffff"
     bordercolor="#666666"
     borderopacity="1"
     objecttolerance="10"
     gridtolerance="10"
     guidetolerance="10"
     inkscape:pageopacity="0"
     inkscape:pageshadow="2"
     inkscape:window-width="1920"
     inkscape:window-height="1056"
     id="namedview28"
     showgrid="true"
     inkscape:zoom="5.6568543"
     inkscape:cx="6.9048056"
     inkscape:cy="-10.858509"
     inkscape:window-x="0"
     inkscape:window-y="24"
     inkscape:window-maximized="1"
     inkscape:current-layer="svg3366">
    <inkscape:grid
       type="xygrid"
       id="grid4158" />
  </sodipodi:namedview>
  <defs
     id="defs3368" />
  <path
     style="fill:#698ecc;fill-opacity:1;stroke:none;stroke-width:1.003654;stroke-linecap:round;stroke-linejoin:round;stroke-miterlimit:4;stroke-dasharray:none;stroke-dashoffset:0;stroke-opacity:1"
     d="M 8,1.5 C 4.4135242,1.5 1.5,4.413524 1.5,8 c 0,3.586476 2.9135242,6.500001 6.5,6.5 3.586474,0 6.500003,-2.913524 6.5,-6.5 C 14.5,4.413524 11.586474,1.5 8,1.5 Z m 0.04507,2.2750001 c 0.52217,0 0.945801,0.4332721 0.945801,0.9673826 0,0.5341083 -0.423631,0.9680178 -0.945801,0.9680178 -0.522169,0 -0.9464355,-0.433909 -0.9464355,-0.9680178 0,-0.5341102 0.4242665,-0.9673826 0.9464355,-0.9673826 z M 4.636379,5.7541995 c 0.04884,0.0018 0.09886,0.01138 0.1498045,0.020315 L 8,6.3381855 11.227148,5.7979995 c 0.04369,-0.00732 0.08066,-0.019425 0.124414,-0.02666 0.125207,-0.01423 0.247935,0.054589 0.292627,0.172021 0.04469,0.1174185 3.58e-4,0.2535215 -0.102832,0.325635 l -2.520654,0.8715335 0.0013,1.849072 0.872168,2.821533 c 0.07608,0.132699 0.02967,0.301225 -0.103467,0.377051 -0.133135,0.07582 -0.302873,0.02987 -0.378955,-0.102832 L 8.0050585,9.0581555 6.570488,12.091066 C 6.4848935,12.219019 6.3027745,12.244925 6.174394,12.159621 6.046018,12.07433 6.0202535,11.909869 6.10584,11.781935 L 6.9945115,8.9724625 7.0116465,7.0960955 4.4935498,6.27915 C 4.4018704,6.23112 4.3367969,6.142426 4.3380319,6.039209 4.3392969,5.9360065 4.4007176,5.8272525 4.4935498,5.781494 4.5399643,5.758614 4.5875335,5.752399 4.6363715,5.754199 Z"
     id="path2555"
     inkscape:connector-curvature="0" />
</svg>

<!-- Created with Inkscape (http://www.inkscape.org/) -->
<svg xmlns="http://www.w3.org/2000/svg" viewBox="0 0 16 16">
 <path d="m 8 1.5 c -3.586 0 -6.5 2.914 -6.5 6.5 c 0 3.586 2.914 6.5 6.5 6.5 3.586 0 6.5 -2.914 6.5 -6.5 c 0 -3.586 -2.914 -6.5 -6.5 -6.5 m 0.045 2.275 c 0.522 0 0.946 0.433 0.946 0.967 0 0.534 -0.424 0.968 -0.946 0.968 -0.522 0 -0.946 -0.434 -0.946 -0.968 0 -0.534 0.424 -0.967 0.946 -0.967 z m -3.409 1.979 c 0.049 0.002 0.099 0.011 0.15 0.02 l 3.214 0.564 3.227 -0.54 c 0.044 -0.007 0.081 -0.019 0.124 -0.027 0.125 -0.014 0.248 0.055 0.293 0.172 0.045 0.117 0 0.254 -0.103 0.326 l -2.521 0.872 0.001 1.849 0.872 2.822 c 0.076 0.133 0.03 0.301 -0.103 0.377 -0.133 0.076 -0.303 0.03 -0.379 -0.103 l -1.407 -3.03 -1.435 3.03 c -0.086 0.128 -0.268 0.154 -0.396 0.069 -0.128 -0.085 -0.154 -0.25 -0.069 -0.378 l 0.889 -2.809 0.017 -1.876 -2.518 -0.817 c -0.092 -0.048 -0.157 -0.137 -0.156 -0.24 0.001 -0.103 0.063 -0.212 0.156 -0.258 0.046 -0.023 0.094 -0.029 0.143 -0.027" style="fill:#698ecc;fill-opacity:1;stroke:none"/>
</svg>
